svgs/duotone/stairs.svg

<svg xmlns="http://www.w3.org/2000/svg" viewBox="0 0 576 512"><!-- Font Awesome Pro 6.0.0-alpha2 by @fontawesome - https://fontawesome.com License - https://fontawesome.com/license (Commercial License) --><defs><style>.fa-secondary{opacity:.4}</style></defs><path d="M576 64C576 81.672 561.688 96 544 96H448V192C448 209.672 433.688 224 416 224H320V320C320 337.672 305.688 352 288 352H192V448C192 465.672 177.688 480 160 480H32C14.312 480 0 465.672 0 448S14.312 416 32 416H128V320C128 302.328 142.312 288 160 288H256V192C256 174.328 270.312 160 288 160H384V64C384 46.328 398.312 32 416 32H544C561.688 32 576 46.328 576 64Z" class="fa-secondary"/></svg>

<svg xmlns="http://www.w3.org/2000/svg" viewBox="0 0 576 512"><!--! Font Awesome Pro 6.3.0 by @fontawesome - https://fontawesome.com License - https://fontawesome.com/license (Commercial License) Copyright 2023 Fonticons, Inc. --><defs><style>.fa-secondary{opacity:.4}</style></defs><path class="fa-primary" d="M576 64c0 17.67-14.31 32-32 32h-96v96c0 17.67-14.31 32-32 32h-96v96c0 17.67-14.31 32-32 32H192v96c0 17.67-14.31 32-32 32H32c-17.69 0-32-14.33-32-32s14.31-32 32-32h96v-96c0-17.67 14.31-32 32-32h96V192c0-17.67 14.31-32 32-32h96V64c0-17.67 14.31-32 32-32h128C561.7 32 576 46.33 576 64z"/></svg>
